X: 266
T: Polonäs, sexdregasamlingen del 1 nr 104
B: Sexdregasamlingen del 1 nr 104
O: Sexdrega, Västergötland
R: Slängpolska
S: efter Johannes Bryngelsson
N: Se även [[Musik/2640|+]]
Z: 2008-05-31 av Nils L
M: 3/4
L: 1/16
K: Gm
d2d2 cedc B2G2 | D=E^FG A=BcA B2G2 | d2d2 cedc B2AG | D2G^F G4 G,4 ::
fbag f2e2 d2c2 | d2e2 cedc B2G2 | fbag f2e2 d2c2 | dcBA B4 B,4 |
dBGB dBGB dBGB | cAFA cAFA cAFA | ^f2g2 a2b2 c2e2 | dcBA G4 G,4 :|
(:musicend:)

(:music:)
